src/assets/img/bottom-filling/adv4.svg

<svg width="60" height="60" viewBox="0 0 60 60" fill="none" xmlns="http://www.w3.org/2000/svg">
<g clip-path="url(#clip0)">
<path d="M42.7817 41.9943C42.3239 41.5366 41.5823 41.5366 41.1246 41.9943C40.6668 42.4516 40.6668 43.1937 41.1246 43.6514L43.8245 46.3513C44.0533 46.5802 44.3532 46.6946 44.653 46.6946C44.9529 46.6946 45.2527 46.5802 45.4816 46.3513L50.2817 41.5517C50.7394 41.0939 50.7394 40.3519 50.2817 39.8941C49.8239 39.4363 49.0823 39.4363 48.6241 39.8941L44.653 43.8657L42.7817 41.9943Z" fill="#333333"/>
<path d="M59.1774 30.8702L46.0803 26.7815C45.9604 26.7407 45.8336 26.7188 45.704 26.7188H45.7022C45.5731 26.7188 45.4459 26.7407 45.3264 26.781L43.8991 27.2269C42.8764 22.6172 40.6526 18.3824 37.4185 14.9117C36.7003 14.1408 35.6012 13.8881 34.6179 14.268C33.6351 14.6484 32.9919 15.5745 32.9791 16.6283L32.9704 17.3492C32.942 19.6678 31.8517 21.8184 30.0824 23.221V18.4996C30.0824 14.9908 29.263 11.4725 27.7126 8.32443C26.1626 5.17685 23.8728 2.3822 21.0915 0.243531C20.7376 -0.0288389 20.2597 -0.0759885 19.8592 0.12085C19.4586 0.318146 19.205 0.726013 19.205 1.17233C19.205 5.87631 17.5804 10.4842 14.6297 14.1472C11.3443 18.2263 9.40613 23.2654 9.09164 28.477C8.23242 27.2827 7.64099 25.9039 7.3732 24.435L7.28394 23.9442C7.13516 23.1294 6.51123 22.516 5.69458 22.3805C4.87656 22.2455 4.0892 22.6254 3.68591 23.3487C1.27487 27.675 0 32.58 0 37.533V37.554C0 40.3793 0.518188 43.1378 1.54037 45.7539C1.72119 46.2167 2.16339 46.4996 2.63214 46.4996C2.77405 46.4996 2.91779 46.474 3.05832 46.4191C3.66119 46.1838 3.95874 45.504 3.72345 44.9011C2.80792 42.5578 2.34375 40.0864 2.34375 37.554V37.533C2.34375 33.3572 3.32886 29.2191 5.20157 25.4938C5.8342 28.1584 7.33932 30.5443 9.48532 32.265C9.83688 32.547 10.3189 32.6019 10.7254 32.4074C11.1319 32.2119 11.3905 31.8013 11.3905 31.3509V29.9812C11.3905 24.7742 13.1891 19.6729 16.4557 15.6175C19.2265 12.177 20.9473 7.98798 21.4178 3.61771C25.41 7.48673 27.7386 12.8975 27.7386 18.4996V25.286C27.7386 25.6819 27.9387 26.0513 28.2706 26.2679C28.6024 26.4839 29.0213 26.5178 29.3839 26.358C32.9388 24.7888 35.2666 21.2636 35.3142 17.3776L35.3229 16.6566C35.3233 16.62 35.3247 16.5079 35.4634 16.4543C35.6026 16.4003 35.679 16.4822 35.7042 16.5092C38.6971 19.7214 40.7405 23.6513 41.6533 27.9282L32.2289 30.8702C31.7395 31.0231 31.4062 31.4763 31.4062 31.989V42.9492C31.4062 44.0492 31.5111 45.1286 31.7102 46.1778C31.6768 46.0918 31.6447 46.0048 31.6086 45.9197C31.6035 45.9068 31.5981 45.894 31.5926 45.8812C31.5912 45.8789 31.5903 45.8771 31.5894 45.8748C31.3371 45.2852 31.0249 44.7148 30.6619 44.1788C30.341 43.6276 30.0037 43.0719 29.6773 42.5345C27.7295 39.3256 25.8897 36.2943 26.6386 33.0666C26.7371 32.6431 26.5929 32.2 26.2637 31.9153C25.9351 31.631 25.4755 31.5518 25.0703 31.7102C23.0223 32.5118 21.1908 34.1222 19.9132 36.2448C19.5822 36.7955 19.3057 37.3554 19.0892 37.9051C17.3506 36.0841 15.3461 35.8411 15.2303 35.8287C14.8169 35.7838 14.4122 35.9637 14.1646 36.297C13.9169 36.6303 13.8647 37.0725 14.0268 37.4551C14.0849 37.5925 15.4221 40.8444 13.6876 44.4603C13.4738 44.799 13.2806 45.1483 13.1126 45.499C13.098 45.5278 13.0847 45.5566 13.0724 45.5855C12.4448 46.9313 12.1271 48.3696 12.1271 49.8615C12.1271 52.121 12.87 54.2093 14.1243 55.8971C12.4544 55.1418 10.8847 54.1539 9.47021 52.9536C8.97675 52.5348 8.237 52.5952 7.8186 53.0887C7.39975 53.5822 7.46017 54.3219 7.95364 54.7408C11.8556 58.0513 16.8123 59.9181 21.9109 59.9977C22.029 59.9995 22.1461 60.0005 22.2638 60.0005H22.2661C22.2725 60.0005 22.2794 60 22.2862 60C27.4205 59.995 32.3428 58.2394 36.3039 55.0168C38.7163 57.507 41.8813 59.2891 45.4829 59.9794C45.5553 59.9936 45.6294 60.0005 45.7031 60.0005C45.7768 60.0005 45.851 59.9936 45.9238 59.9794C54.0802 58.4166 60 51.2544 60 42.9492V31.989C60 31.4763 59.6667 31.0231 59.1774 30.8702ZM15.2129 46.5408C15.2151 46.5358 15.2174 46.5312 15.2197 46.5266C15.3575 46.236 15.5186 45.9462 15.6995 45.6642C15.7237 45.6258 15.7462 45.5864 15.7658 45.5461C16.983 43.0531 17.0325 40.6847 16.8068 39.0001C17.4788 39.5155 18.1924 40.3395 18.6772 41.6515C18.8947 42.2411 19.5392 42.5546 20.137 42.3605C20.7353 42.1674 21.0741 41.5366 20.9052 40.9309C20.6039 39.8492 21.7566 36.7831 24.1264 34.9297C24.2455 38.1024 25.9827 40.9648 27.6736 43.7508C28.0014 44.2905 28.3406 44.8485 28.656 45.3923C28.6707 45.4175 28.6862 45.4422 28.7022 45.466C28.9934 45.8913 29.2424 46.3449 29.4415 46.8127C29.4434 46.8169 29.4447 46.8205 29.4466 46.8246C29.854 47.7864 30.0604 48.8081 30.0604 49.8619C30.0604 54.1452 26.5874 57.632 22.3091 57.6558C22.2748 57.6558 22.2409 57.6553 22.2066 57.6553C17.9361 57.6233 14.4708 54.1402 14.4708 49.8619C14.4708 48.7015 14.7203 47.5841 15.2129 46.5408ZM30.3813 55.9319C31.6512 54.2386 32.4042 52.1365 32.4042 49.8619C32.4042 49.3877 32.3698 48.9189 32.3058 48.4557C32.8839 50.1773 33.7267 51.7854 34.7896 53.2274C33.4332 54.3256 31.951 55.2315 30.3813 55.9319ZM57.6562 42.9492C57.6562 50.0569 52.6433 56.1964 45.7031 57.6338C38.763 56.1964 33.75 50.0569 33.75 42.9492V32.8505L45.7031 29.1188L57.6562 32.8505V42.9492Z" fill="#333333"/>
<path d="M45.3539 31.6831L36.9164 34.3175C36.427 34.4704 36.0938 34.9231 36.0938 35.4358V42.9491C36.0938 48.6291 39.9179 53.6461 45.3928 55.1494C45.4944 55.1774 45.5988 55.1911 45.7031 55.1911C45.8075 55.1911 45.9119 55.1774 46.0135 55.1494C51.4883 53.6461 55.3125 48.6291 55.3125 42.9491V35.4358C55.3125 34.9231 54.9792 34.47 54.4899 34.3175L46.0524 31.6831C45.8249 31.6121 45.5814 31.6121 45.3539 31.6831ZM52.9688 36.2978V42.9491C52.9688 47.4686 49.9969 51.4731 45.7031 52.7988C41.4093 51.4731 38.4375 47.4686 38.4375 42.9491V36.2978L45.7031 34.0291L52.9688 36.2978Z" fill="#333333"/>
<path d="M5.14441 48.792C4.83633 48.792 4.53375 48.9174 4.31586 49.1353C4.09796 49.3532 3.97253 49.6558 3.97253 49.9639C3.97253 50.2719 4.09796 50.5745 4.31586 50.7924C4.53375 51.0103 4.83633 51.1357 5.14441 51.1357C5.45248 51.1357 5.75507 51.0103 5.97296 50.7924C6.19086 50.5745 6.31628 50.2719 6.31628 49.9639C6.31628 49.6558 6.19086 49.3532 5.97296 49.1353C5.75507 48.9174 5.45248 48.792 5.14441 48.792Z" fill="#333333"/>
</g>
<defs>
<clipPath id="clip0">
<rect width="60" height="60" fill="white"/>
</clipPath>
</defs>
</svg>

<svg width="60" height="60" fill="none" xmlns="http://www.w3.org/2000/svg"><g clip-path="url(#clip0)" fill="#333"><path d="M42.782 41.994a1.172 1.172 0 10-1.657 1.657l2.7 2.7a1.168 1.168 0 001.657 0l4.8-4.8a1.172 1.172 0 00-1.658-1.657l-3.971 3.972-1.871-1.872z"/><path d="M59.177 30.87L46.08 26.782a1.167 1.167 0 00-.376-.063h-.002a1.19 1.19 0 00-.376.062l-1.427.446a26.419 26.419 0 00-6.48-12.315 2.552 2.552 0 00-2.801-.644 2.552 2.552 0 00-1.639 2.36l-.009.721a7.627 7.627 0 01-2.888 5.872V18.5c0-3.51-.819-7.027-2.37-10.176a23.152 23.152 0 00-6.62-8.08 1.173 1.173 0 00-1.887.928c0 4.704-1.625 9.312-4.575 12.975a25.34 25.34 0 00-5.538 14.33 9.989 9.989 0 01-1.719-4.042l-.09-.49a1.918 1.918 0 00-1.588-1.564 1.917 1.917 0 00-2.01.968A29.206 29.206 0 000 37.533v.021c0 2.825.518 5.584 1.54 8.2a1.172 1.172 0 102.183-.853 20.104 20.104 0 01-1.38-7.347v-.021c0-4.176.986-8.314 2.859-12.04a12.333 12.333 0 004.283 6.772 1.173 1.173 0 001.905-.914v-1.37a22.974 22.974 0 015.066-14.364 23.12 23.12 0 004.962-12c3.992 3.87 6.32 9.28 6.32 14.883v6.786a1.173 1.173 0 001.646 1.072 9.972 9.972 0 005.93-8.98l.009-.721c0-.037.002-.15.14-.203a.202.202 0 01.241.055 24.088 24.088 0 015.95 11.42l-9.425 2.941c-.49.153-.823.606-.823 1.119v10.96c0 1.1.105 2.18.304 3.229-.033-.086-.065-.173-.101-.258a1.421 1.421 0 00-.02-.045c-.252-.59-.564-1.16-.927-1.696a103.69 103.69 0 00-.985-1.645c-1.947-3.208-3.787-6.24-3.038-9.467a1.171 1.171 0 00-1.569-1.357c-2.048.802-3.88 2.412-5.157 4.535-.33.55-.607 1.11-.824 1.66-1.738-1.82-3.743-2.064-3.859-2.076a1.176 1.176 0 00-1.204 1.626c.059.138 1.396 3.39-.338 7.005a10.248 10.248 0 00-.616 1.126 10.042 10.042 0 00-.945 4.276c0 2.259.743 4.347 1.997 6.035a19.815 19.815 0 01-4.654-2.943 1.172 1.172 0 10-1.516 1.787A22.167 22.167 0 0022.264 60h.002l.02-.001a22.184 22.184 0 0014.018-4.983 17.29 17.29 0 009.179 4.962 1.147 1.147 0 00.44 0C54.08 58.417 60 51.254 60 42.95V31.99c0-.513-.333-.966-.823-1.119zM15.213 46.54a1.238 1.238 0 00.553-.995c1.217-2.492 1.266-4.86 1.04-6.545.673.516 1.386 1.34 1.871 2.651a1.171 1.171 0 002.228-.72c-.301-1.082.852-4.148 3.221-6.001.12 3.172 1.857 6.035 3.548 8.82.327.54.667 1.099.982 1.642l.046.074c.291.425.54.879.74 1.347l.005.012c.407.961.613 1.983.613 3.037 0 4.283-3.473 7.77-7.75 7.794h-.103c-4.27-.033-7.736-3.516-7.736-7.794 0-1.16.25-2.278.742-3.321zm15.168 9.392a10.085 10.085 0 001.925-7.476 17.357 17.357 0 002.484 4.771 19.87 19.87 0 01-4.409 2.705zm27.275-12.983c0 7.108-5.013 13.247-11.953 14.685-6.94-1.438-11.953-7.577-11.953-14.685V32.85l11.953-3.731 11.953 3.731v10.1z"/><path d="M45.354 31.683l-8.438 2.635a1.17 1.17 0 00-.822 1.118v7.513c0 5.68 3.824 10.697 9.299 12.2a1.168 1.168 0 00.62 0c5.475-1.503 9.3-6.52 9.3-12.2v-7.513a1.17 1.17 0 00-.823-1.118l-8.438-2.635a1.172 1.172 0 00-.698 0zm7.615 4.615v6.651c0 4.52-2.972 8.524-7.266 9.85a10.335 10.335 0 01-7.266-9.85v-6.651l7.266-2.269 7.266 2.269zM5.144 48.792c-.308 0-.61.125-.828.343a1.18 1.18 0 00-.343.829c0 .308.125.61.343.828.218.218.52.344.828.344.308 0 .611-.126.829-.344a1.18 1.18 0 00.343-.828c0-.308-.125-.61-.343-.829a1.181 1.181 0 00-.829-.343z"/></g><defs><clipPath id="clip0"><path fill="#fff" d="M0 0h60v60H0z"/></clipPath></defs></svg>
